src/assets/catch.svg

<?xml version="1.0" encoding="UTF-8"?>
<svg version="1.1" viewBox="0 0 666.67 666.67" xml:space="preserve" xmlns="http://www.w3.org/2000/svg">
    <defs><clipPath id="a"><path d="m0 500h500v-500h-500z"/></clipPath></defs>
    <g transform="matrix(1.3333 0 0 -1.3333 0 666.67)"><g clip-path="url(#a)"><g transform="translate(250,485)"><path class="catch-logo" d="m0 0c-31.707 0-62.487-6.219-91.485-18.484-27.989-11.838-53.116-28.777-74.685-50.346s-38.508-46.697-50.346-74.685c-12.265-28.998-18.484-59.778-18.484-91.485s6.219-62.487 18.484-91.484c11.838-27.99 28.777-53.117 50.346-74.686s46.696-38.508 74.685-50.347c28.998-12.264 59.778-18.483 91.485-18.483s62.487 6.219 91.484 18.483c27.99 11.839 53.117 28.778 74.686 50.347s38.508 46.696 50.347 74.686c12.264 28.997 18.483 59.777 18.483 91.484s-6.219 62.487-18.483 91.485c-11.839 27.988-28.778 53.116-50.347 74.685s-46.696 38.508-74.686 50.346c-28.997 12.265-59.777 18.484-91.484 18.484m0-40c107.7 0 195-87.305 195-195s-87.305-195-195-195c-107.7 0-195 87.305-195 195s87.304 195 195 195"/></g><g transform="translate(308.75,212.5)"><path class="catch-logo" d="m0 0c-20.711 0-37.5 16.789-37.5 37.5s16.789 37.5 37.5 37.5 37.5-16.789 37.5-37.5-16.79-37.5-37.5-37.5"/></g><g transform="translate(221.25,288.75)"><path class="catch-logo" d="m0 0c-20.711 0-37.5 16.789-37.5 37.5s16.789 37.5 37.5 37.5 37.5-16.789 37.5-37.5-16.789-37.5-37.5-37.5"/></g><g transform="translate(221.25,136.25)"><path class="catch-logo" d="m0 0c-20.711 0-37.5 16.789-37.5 37.5s16.789 37.5 37.5 37.5 37.5-16.789 37.5-37.5-16.789-37.5-37.5-37.5"/></g></g></g></svg>

<?xml version="1.0" encoding="UTF-8" standalone="no"?>
<svg
        xmlns:dc="http://purl.org/dc/elements/1.1/"
        xmlns:cc="http://creativecommons.org/ns#"
        xmlns:rdf="http://www.w3.org/1999/02/22-rdf-syntax-ns#"
        xmlns="http://www.w3.org/2000/svg"
        viewBox="0 0 666.66669 666.66669"
        height="666.66669"
        width="666.66669"
        xml:space="preserve"
        id="svg2"
        version="1.1"><metadata
     id="metadata8"><rdf:RDF><cc:Work
         rdf:about=""><dc:format>image/svg+xml</dc:format><dc:type
        rdf:resource="http://purl.org/dc/dcmitype/StillImage"/></cc:Work></rdf:RDF></metadata>
    <defs
            id="defs6"><clipPath
       id="clipPath18"
       clipPathUnits="userSpaceOnUse"><path
         id="path16"
         d="M 0,500 H 500 V 0 H 0 Z" /></clipPath></defs>
    <g
            transform="matrix(1.3333333,0,0,-1.3333333,0,666.66667)"
            id="g10"><g
       id="g12"><g
         clip-path="url(#clipPath18)"
         id="g14"><g
           transform="translate(250,485)"
           id="g20"><path
             id="path22"
             style="fill:#7249A5;fill-opacity:1;fill-rule:nonzero;stroke:none"
             d="m 0,0 c -31.707,0 -62.487,-6.219 -91.485,-18.484 -27.989,-11.838 -53.116,-28.777 -74.685,-50.346 -21.569,-21.569 -38.508,-46.697 -50.346,-74.685 C -228.781,-172.513 -235,-203.293 -235,-235 c 0,-31.707 6.219,-62.487 18.484,-91.484 11.838,-27.99 28.777,-53.117 50.346,-74.686 21.569,-21.569 46.696,-38.508 74.685,-50.347 C -62.487,-463.781 -31.707,-470 0,-470 c 31.707,0 62.487,6.219 91.484,18.483 27.99,11.839 53.117,28.778 74.686,50.347 21.569,21.569 38.508,46.696 50.347,74.686 12.264,28.997 18.483,59.777 18.483,91.484 0,31.707 -6.219,62.487 -18.483,91.485 -11.839,27.988 -28.778,53.116 -50.347,74.685 -21.569,21.569 -46.696,38.508 -74.686,50.346 C 62.487,-6.219 31.707,0 0,0 m 0,-40 c 107.695,0 195,-87.305 195,-195 0,-107.695 -87.305,-195 -195,-195 -107.696,0 -195,87.305 -195,195 0,107.695 87.304,195 195,195" /></g><g
            transform="translate(308.75,212.5)"
            id="g24"><path
             id="path26"
             style="fill:#7249A5;fill-opacity:1;fill-rule:nonzero;stroke:none"
             d="M 0,0 C -20.711,0 -37.5,16.789 -37.5,37.5 -37.5,58.211 -20.711,75 0,75 20.711,75 37.5,58.211 37.5,37.5 37.5,16.789 20.71,0 0,0" /></g><g
            transform="translate(221.25,288.75)"
            id="g28"><path
             id="path30"
             style="fill:#7249A5;fill-opacity:1;fill-rule:nonzero;stroke:none"
             d="M 0,0 C -20.711,0 -37.5,16.789 -37.5,37.5 -37.5,58.211 -20.711,75 0,75 20.711,75 37.5,58.211 37.5,37.5 37.5,16.789 20.711,0 0,0" /></g><g
            transform="translate(221.25,136.25)"
            id="g32"><path
             id="path34"
             style="fill:#7249A5;fill-opacity:1;fill-rule:nonzero;stroke:none"
             d="M 0,0 C -20.711,0 -37.5,16.789 -37.5,37.5 -37.5,58.211 -20.711,75 0,75 20.711,75 37.5,58.211 37.5,37.5 37.5,16.789 20.711,0 0,0" /></g></g></g></g></svg>
